X:960
T:Reel 960
M:4/4
K:Gmaj
L:1/8
dc|B>G (3GGG BGdc|B>G (3GGG d2cB|c>A (3AAA eAAA|cdef gedc|B>G (3GGG BGdc|B>G (3GGG d2cB|cedc BGAF|DGGF G2|Bc|dggf g2gf|dggf g2BG|AAa^g aecB|Aaa^g aecA|dggf gedB|Gggf gfeg|dgfa gedB|AGFA G2|
